!!!!SEGMENT: pl-wtm--r-1631_stefani-jozef--rojno-tlumno-jak-nabito.krn
!!!id: 18xx:2368
!!!COM: Stefani, Józef
!!!COM-rism: pe30024097
!!!CDT: 1800/04/16-1876/03/19
!!!CNT: Polish
!!!OTL: Rojno, tłumno, jak nabito
!!!PDT:
!!!SMS-siglum: PL-Wtm
!!!SMS-shelfmark: R 1631
!!!NIFC-rismID: 1001115799
!!!URL-scan: http://repozytorium.nifc.pl/skany/pl-wtm-nut--r1631
!!!ONB-nifc:
!!!SMS-variant:
!!!SMS-altvar:
!!!OMD: Allegro.
**kern	**kern	**kern	**text	**dynam
*part3	*part2	*part1	*part1	*part1
*staff3	*staff2	*staff1	*staff1	*
*I"Baſso.	*I"Tenore IIo	*I"Tenore Io	*	*
*clefF4	*clefC4	*clefC4	*	*
*k[b-e-a-d-g-]	*k[b-e-a-d-g-]	*k[b-e-a-d-g-]	*	*
*M2/4	*M2/4	*M2/4	*	*
=1	=1	=1	=1	=1
*all\right	*all\right	*all\right	*	*
8D-\	8F/	8d-\	Roj-	.
8D-\	8A-/	8c\	-no	.
8D-\	8G-/	8B-\	tłum-	.
!	!	!LO:TX:a:i:t=Wiersz Jana Nep. Kamińskiego.\n Muzyka Józefa Stefaniego.	!	!
8D-\	8F/	8A-\	-no,	.
=2	=2	=2	=2	=2
8D-\	8F/	8d-\	jak	.
8D-\	8A-/	8c\	na-	.
8D-\	8G-/	8B-\	-bi-	.
8D-\	8F/	8A-\	-to,	.
=3	=3	=3	=3	=3
8D-\	8F/	8d-\	Wszy-	.
8AA-/	8E-/	8c\	-stko	.
8D-\	8F/	8d-\	w_tar-	.
8C/	8A-/	8e-\	-gu,	.
!!LO:LB:g=original
=4	=4	=4	=4	=4
8D-\	8A-\	8f\	wszy-	.
8BB-/	8d-\	8g-\	-stko	.
8AA-/	8d-\	8f\	w_swa-	.
8A-\	8c\	8e-\	-rze,	.
=5	=5	=5	=5	=5
8B-\	8B-\	8d-\	Pie-	.
8Gn\	8B-\	8e-\	-szo	.
8A-\	8A-\	8c\	wo-	.
8A-\	8c\	8e-\	-zem	.
=6	=6	=6	=6	=6
8D-\	8d-\	8f\	i	.
8E-\	8d-\	8gn\	ka-	.
8AA-/	8c\	8a-\	-re-	.
8A-\	8A-\	8A-\	-tą,	.
!!LO:LB:g=original
=7	=7	=7	=7	=7
8D-\	8A-\	8f\	Peł-	.
8F\	8d-\	8a-\	-no	.
8E-\	8B-\	8g-\	lu-	.
8A-\	8c\	8e-\	-du	.
=8	=8	=8	=8	=8
8D-\	8d-\	8f\	na	.
8B-\	8d-\	8d-\	ba-	.
8A-\	8c\	8e-\	-za-	.
8A-\	8A-\	8A-\	-rze.	.
=9	=9	=9	=9	=9
4r	2r	4r	.	.
!	!	!	!	!LO:DY:a:rj
8r	.	8r	.	mf
16A-\	.	16A-\	Ten	.
16A-\	.	16A-\	prze-	.
=10	=10	=10	=10	=10
8Gn\	4r	8c\	-da-	.
4G\	.	4B-^>\	-je,	.
.	8r	.	.	.
16G-X\	16A-\	16c\	Ten	.
16G-\	16A-\	16c\	na	.
!!LO:LB:g=original
=11	=11	=11	=11	=11
8F\	8A-\	8e-\	by-	.
4F^<\	4A-\	4d-^>\	-wa	.
16A-\	16A-\	16A-\	Ten	.
16A-\	16A-\	16A-\	chce	.
=12	=12	=12	=12	=12
8.D-\	8.A-\	8.f\	dro-	.
16F\	16A-\	16d-\	-go	.
8G-\	8B-\	8B-\	tam-	.
8E-\	8G-/	8e-\	-ten	.
=13	=13	=13	=13	=13
8A-\	8F/	8d-\	ta-	.
8AA-/	8E-/	8c\	-nio;	.
8r	8r	8r	.	.
!	!	!LO:TX:a:i:t=rall&colon;	!	!LO:DY:a:rj
16G-X\	16A-/	16c\	Ja-	p
16G-\	16A-/	16c\	-kiem	.
!!LO:PB:g=original
=14	=14	=14	=14	=14
8F\	8A-/	8d-\	pocz-	.
4F\	4A-/	4A-^>\	-ciw	.
16G-\	16.A-/	16c\	Każ-	.
16G-\	.	16c\	-dy	.
.	32A-/	.	.	.
=15	=15	=15	=15	=15
.	.	(>8qe-/	.	.
8F\	8A-/	8d-\)	śpie-	.
16F\	16A-/	16A-\	-wa,	.
16r	16r	16r	.	.
!	!	!LO:TX:a:i:t=a tempo	!	!LO:DY:a:rj
8.D-\	8.A-/	8.f\	Wszys-	f
16F\	16A-/	16d-\	-cy	.
=16	=16	=16	=16	=16
8G-\	8G-/	8B-\	za-	.
8G-\	8G-/	8B-\	-cni	.
16r	16r	16r	.	.
(>16A-\LL	(>16A-\LL	(>16A-\LL	choć	.
16F\JJ)	16d-\JJ)	16d-\JJ)	.	.
16D-\	16f\	16f\	cy-	.
!!LO:LB:g=original
=17	=17	=17	=17	=17
(<4.AA-/	(>4.A-\	(>4.a-\	-ga-	.
(<16BB-/LL	(>16g-\LL	(>16g-\LL	.	.
16C/JJ))	16e-\JJ))	16e-\JJ))	.	.
=18	=18	=18	=18	=18
4D-\	4d-\	4d-\	-nią.	.
4r	4r	4r	.	.
!!LO:PB:g=original
==	==	==	==	==
*-	*-	*-	*-	*-
!!!system-decoration: {(s1,s2,s3)}
!!!RDF**kern: < = below
!!!RDF**kern: > = above
!!!ENC: Marta Chmielewska
!!!END: 2021-06-09
!!!ENC: Andrzej Gręziak
!!!END: 2021-06-06
